X: 29334
T: Newcastle Bridge
R: jig
M: 6/8
K: Amajor
|:ed|c2A ABc|BGE E2d|cAc edc|BcB Bed|
c2A ABc|BGE E2d|c/d/ec dBG|ABA A:|
|:ed|cde edc|def fed|cAc edc|BcB Bed|
cde edc|def fga|ece dBG|ABA A:|

